X:5125
T:Reinlnder fr Voss
A:Vsterbotten
M:4/4
O:Norway
R:Reinlnder
Z:Richard Robinson 
%%TUNEURL: http://www.leeds.ac.uk/music/Info/RRTuneBk/gettune/00000906.html
%%ID:00000906
K:D
d2df A2AG | FEFB A4 |1 BAGF G2E2 | AGFE F2D2 \
:|2 A2ce aecA | d2d2 d4 :|
|:\
K:A
|:E2EG A2AB | cBcf e4 | fedc d2B2 | edcB c2A2 |\
E2EG A2AB | cBcf e4 |
|1 fedc dBGB | A2A2 A4 \
:|2 E2GB d2cB | A2A2 A4 :|
